src/UI/img/credit-card-discover.svg

<svg fill="none" height="32" viewBox="0 0 32 32" width="32" xmlns="http://www.w3.org/2000/svg" xmlns:xlink="http://www.w3.org/1999/xlink"><linearGradient id="a" gradientUnits="userSpaceOnUse" x1="15.5839" x2="17.9648" y1="14.4594" y2="17.3344"><stop offset="0" stop-color="#e6772f"/><stop offset="1" stop-color="#ea9d2c"/></linearGradient><radialGradient id="b" cx="0" cy="0" gradientTransform="matrix(-1.54982135 -1.97656043 2.06549196 -1.61955257 17.1787 16.7055)" gradientUnits="userSpaceOnUse" r="1"><stop offset="0" stop-color="#ea9d2c" stop-opacity="0"/><stop offset=".328125" stop-color="#df7624" stop-opacity="0"/><stop offset=".760188" stop-color="#bf4b23" stop-opacity=".75"/><stop offset="1" stop-color="#7d3017"/></radialGradient><path d="m26 4c3.3137 0 6 2.68629 6 6v12c0 3.3137-2.6863 6-6 6h-20c-3.31371 0-5.99999902-2.6863-5.99999888-6l.00000053-12c.00000014-3.31371 2.68628835-6 5.99999835-6z" fill="#fff"/><g clip-rule="evenodd" fill-rule="evenodd"><path d="m30 22v-12c0-2.20914-1.7909-4-4-4h-20c-2.20914 0-4 1.79086-4 4v12c0 2.2091 1.79086 4 4 4h20c2.2091 0 4-1.7909 4-4zm2-12c0-3.31371-2.6863-6-6-6h-20c-3.31371 0-5.99999821 2.68629-5.99999835 6l-.00000053 12c-.00000014 3.3137 2.68628888 6 5.99999888 6h20c3.3137 0 6-2.6863 6-6z" fill="#ccc"/><path d="m6.48863 16.8161c-.22754.1946-.51719.2796-.98039.2796h-.1922v-2.3217h.1922c.4632 0 .74174.0794.98039.2836.24634.2111.39438.5366.39438.8734 0 .3384-.14804.6756-.39438.8851zm-.83691-2.6368h-1.05162v3.5114h1.04521c.55623 0 .95773-.1267 1.30965-.4061.41803-.3311.66608-.8309.66608-1.3487 0-1.0366-.80927-1.7566-1.96932-1.7566z" fill="#201d1c"/><path d="m7.95117 14.1793h.7131v3.5114h-.7131z" fill="#201d1c"/><path d="m10.4159 15.5251c-.43046-.151-.55627-.2517-.55627-.4414 0-.2206.22487-.3879.53397-.3879.2143 0 .3909.0821.5789.2826l.3723-.4674c-.3076-.259-.6758-.3902-1.0771-.3902-.64942 0-1.14439.4324-1.14439 1.004 0 .4854.2301.7316.90159.9654.2807.0934.4233.1572.4955.2005.1431.0884.2143.2152.2143.3618 0 .2856-.2365.4956-.5562.4956-.34038 0-.61579-.1631-.78063-.4693l-.46135.4276c.32984.4624.72521.6691 1.26988.6691.7429 0 1.2664-.4759 1.2664-1.1538 0-.5586-.2428-.8118-1.0569-1.0966z" fill="#201d1c"/><path d="m11.6973 15.9359c0 1.0326.847 1.8328 1.9374 1.8328.3074 0 .571-.0581.8956-.2047v-.8069c-.2868.2758-.5386.3846-.8643.3846-.7205 0-1.2308-.4989-1.2308-1.2107 0-.6726.5268-1.2054 1.1995-1.2054.3394 0 .5987.1151.8956.395v-.806c-.3136-.1518-.5709-.2146-.881-.2146-1.0841 0-1.952.8158-1.952 1.8359z" fill="#201d1c"/><path d="m20.3281 16.5367-.9786-2.3574h-.7802l1.5556 3.6h.3837l1.5858-3.6h-.7741z" fill="#201d1c"/><path d="m22.4189 17.6907h2.0293v-.595h-1.3133v-.9478h1.2635v-.5948h-1.2635v-.7791h1.3133v-.5947h-2.0293z" fill="#201d1c"/><path d="m25.8457 15.794h-.2078v-1.0621h.2194c.4471 0 .6866.1796.6866.5217 0 .3514-.2395.5404-.6982.5404zm1.4351-.5786c0-.6576-.4713-1.0361-1.2975-1.0361h-1.0629v3.5114h.7175v-1.4118h.0931l.9886 1.4118h.8804l-1.1545-1.4799c.5395-.1056.8353-.4581.8353-.9954z" fill="#201d1c"/><path d="m18.6704 15.9441c0 1.0109-.856 1.8303-1.9129 1.8303-1.0566 0-1.9128-.8194-1.9128-1.8303 0-1.0111.8562-1.8306 1.9128-1.8306 1.0569 0 1.9129.8195 1.9129 1.8306z" fill="url(#a)"/><path d="m18.6704 15.9441c0 1.0109-.856 1.8303-1.9129 1.8303-1.0566 0-1.9128-.8194-1.9128-1.8303 0-1.0111.8562-1.8306 1.9128-1.8306 1.0569 0 1.9129.8195 1.9129 1.8306z" fill="url(#b)"/></g></svg>

<svg width="32" height="32" viewBox="0 0 32 32" fill="none" xmlns="http://www.w3.org/2000/svg">
<path d="M26 4C29.3137 4 32 6.68629 32 10L32 22C32 25.3137 29.3137 28 26 28L6 28C2.68629 28 9.75697e-07 25.3137 1.12054e-06 22L1.64508e-06 10C1.78993e-06 6.68629 2.68629 4 6 4L26 4Z" fill="white"/>
<path fill-rule="evenodd" clip-rule="evenodd" d="M30 22L30 10C30 7.79086 28.2091 6 26 6L6 6C3.79086 6 2 7.79086 2 10L2 22C2 24.2091 3.79086 26 6 26L26 26C28.2091 26 30 24.2091 30 22ZM32 10C32 6.68629 29.3137 4 26 4L6 4C2.68629 4 1.78993e-06 6.68629 1.64508e-06 10L1.12054e-06 22C9.75697e-07 25.3137 2.68629 28 6 28L26 28C29.3137 28 32 25.3137 32 22L32 10Z" fill="#CCCCCC"/>
<path fill-rule="evenodd" clip-rule="evenodd" d="M6.48863 16.8161C6.26109 17.0107 5.97144 17.0957 5.50824 17.0957H5.31604V14.774H5.50824C5.97144 14.774 6.24998 14.8534 6.48863 15.0576C6.73497 15.2687 6.88301 15.5942 6.88301 15.931C6.88301 16.2694 6.73497 16.6066 6.48863 16.8161ZM5.65172 14.1793H4.6001V17.6907H5.64531C6.20154 17.6907 6.60304 17.564 6.95496 17.2846C7.37299 16.9535 7.62104 16.4537 7.62104 15.9359C7.62104 14.8993 6.81177 14.1793 5.65172 14.1793Z" fill="#201D1C"/>
<path fill-rule="evenodd" clip-rule="evenodd" d="M7.95117 14.1793H8.66427V17.6907H7.95117V14.1793Z" fill="#201D1C"/>
<path fill-rule="evenodd" clip-rule="evenodd" d="M10.4159 15.5251C9.98544 15.3741 9.85963 15.2734 9.85963 15.0837C9.85963 14.8631 10.0845 14.6958 10.3936 14.6958C10.6079 14.6958 10.7845 14.7779 10.9725 14.9784L11.3448 14.511C11.0372 14.252 10.669 14.1208 10.2677 14.1208C9.61828 14.1208 9.12331 14.5532 9.12331 15.1248C9.12331 15.6102 9.35341 15.8564 10.0249 16.0902C10.3056 16.1836 10.4482 16.2474 10.5204 16.2907C10.6635 16.3791 10.7347 16.5059 10.7347 16.6525C10.7347 16.9381 10.4982 17.1481 10.1785 17.1481C9.83812 17.1481 9.56271 16.985 9.39787 16.6788L8.93652 17.1064C9.26636 17.5688 9.66173 17.7755 10.2064 17.7755C10.9493 17.7755 11.4728 17.2996 11.4728 16.6217C11.4728 16.0631 11.23 15.8099 10.4159 15.5251Z" fill="#201D1C"/>
<path fill-rule="evenodd" clip-rule="evenodd" d="M11.6973 15.9359C11.6973 16.9685 12.5443 17.7687 13.6347 17.7687C13.9421 17.7687 14.2057 17.7106 14.5303 17.564V16.7571C14.2435 17.0329 13.9917 17.1417 13.666 17.1417C12.9455 17.1417 12.4352 16.6428 12.4352 15.931C12.4352 15.2584 12.962 14.7256 13.6347 14.7256C13.9741 14.7256 14.2334 14.8407 14.5303 15.1206V14.3146C14.2167 14.1628 13.9594 14.1 13.6493 14.1C12.5652 14.1 11.6973 14.9158 11.6973 15.9359Z" fill="#201D1C"/>
<path fill-rule="evenodd" clip-rule="evenodd" d="M20.3281 16.5367L19.3495 14.1793H18.5693L20.1249 17.7793H20.5086L22.0944 14.1793H21.3203L20.3281 16.5367Z" fill="#201D1C"/>
<path fill-rule="evenodd" clip-rule="evenodd" d="M22.4189 17.6907H24.4482V17.0957H23.1349V16.1479H24.3984V15.5531H23.1349V14.774H24.4482V14.1793H22.4189V17.6907Z" fill="#201D1C"/>
<path fill-rule="evenodd" clip-rule="evenodd" d="M25.8457 15.794H25.6379V14.7319H25.8573C26.3044 14.7319 26.5439 14.9115 26.5439 15.2536C26.5439 15.605 26.3044 15.794 25.8457 15.794ZM27.2808 15.2154C27.2808 14.5578 26.8095 14.1793 25.9833 14.1793H24.9204V17.6907H25.6379V16.2789H25.731L26.7196 17.6907H27.6L26.4455 16.2108C26.985 16.1052 27.2808 15.7527 27.2808 15.2154Z" fill="#201D1C"/>
<path fill-rule="evenodd" clip-rule="evenodd" d="M18.6704 15.9441C18.6704 16.955 17.8144 17.7744 16.7575 17.7744C15.7009 17.7744 14.8447 16.955 14.8447 15.9441C14.8447 14.933 15.7009 14.1135 16.7575 14.1135C17.8144 14.1135 18.6704 14.933 18.6704 15.9441Z" fill="url(#paint0_linear_8945_833)"/>
<path fill-rule="evenodd" clip-rule="evenodd" d="M18.6704 15.9441C18.6704 16.955 17.8144 17.7744 16.7575 17.7744C15.7009 17.7744 14.8447 16.955 14.8447 15.9441C14.8447 14.933 15.7009 14.1135 16.7575 14.1135C17.8144 14.1135 18.6704 14.933 18.6704 15.9441Z" fill="url(#paint1_radial_8945_833)"/>
<defs>
<linearGradient id="paint0_linear_8945_833" x1="15.5839" y1="14.4594" x2="17.9648" y2="17.3344" gradientUnits="userSpaceOnUse">
<stop stop-color="#E6772F"/>
<stop offset="1" stop-color="#EA9D2C"/>
</linearGradient>
<radialGradient id="paint1_radial_8945_833" cx="0" cy="0" r="1" gradientUnits="userSpaceOnUse" gradientTransform="translate(17.1787 16.7055) rotate(-128.1) scale(2.51172 2.62473)">
<stop stop-color="#EA9D2C" stop-opacity="0"/>
<stop offset="0.328125" stop-color="#DF7624" stop-opacity="0"/>
<stop offset="0.760188" stop-color="#BF4B23" stop-opacity="0.75"/>
<stop offset="1" stop-color="#7D3017"/>
</radialGradient>
</defs>
</svg>
